dist/img/android-head.svg

<svg width="19" height="11" viewBox="0 0 19 11" fill="none" xmlns="http://www.w3.org/2000/svg">
<path d="M13.8724 8.21815C13.4362 8.21815 13.0813 7.8532 13.0813 7.40492C13.0813 6.95664 13.4362 6.59199 13.8724 6.59199C14.3087 6.59199 14.6636 6.95657 14.6636 7.40492C14.6636 7.85327 14.3087 8.21815 13.8724 8.21815ZM5.1276 8.21815C4.69135 8.21815 4.33649 7.8532 4.33649 7.40492C4.33649 6.95664 4.69128 6.59199 5.1276 6.59199C5.56385 6.59199 5.91871 6.95657 5.91871 7.40492C5.91871 7.85327 5.56392 8.21815 5.1276 8.21815ZM14.1562 3.32094L15.7374 0.50687C15.7809 0.429209 15.7927 0.336976 15.7701 0.250411C15.7475 0.163845 15.6924 0.0900167 15.617 0.0451251C15.5414 0.000419648 15.4516 -0.0116602 15.3674 0.0115349C15.2832 0.0347301 15.2113 0.0913063 15.1676 0.168857L13.5666 3.01849C12.3422 2.4444 10.9672 2.12454 9.5 2.12454C8.03276 2.12454 6.65776 2.4444 5.43344 3.01849L3.83239 0.168857C3.78869 0.0913063 3.71685 0.0347301 3.63261 0.0115349C3.54837 -0.0116602 3.45862 0.000419648 3.38304 0.0451251C3.30751 0.0899747 3.2524 0.163804 3.22983 0.250387C3.20725 0.33697 3.21905 0.429222 3.26263 0.50687L4.84384 3.32094C2.12867 4.83839 0.271669 7.66295 0 11H19C18.7281 7.66302 16.8711 4.83839 14.1562 3.32087" fill="white"/>
</svg>

<svg xmlns="http://www.w3.org/2000/svg" width="19" height="11" fill="none"><path fill="#fff" d="M13.872 8.218a.803.803 0 0 1-.79-.813c0-.448.354-.813.79-.813.437 0 .792.365.792.813a.803.803 0 0 1-.792.813Zm-8.744 0a.803.803 0 0 1-.792-.813c0-.448.355-.813.792-.813.436 0 .79.365.79.813a.803.803 0 0 1-.79.813Zm9.028-4.897L15.737.507a.347.347 0 0 0-.12-.462.322.322 0 0 0-.25-.033.33.33 0 0 0-.2.157l-1.6 2.85A9.54 9.54 0 0 0 9.5 2.124a9.54 9.54 0 0 0-4.067.893l-1.6-2.85a.33.33 0 0 0-.2-.156.322.322 0 0 0-.25.033.346.346 0 0 0-.12.462l1.58 2.814C2.13 4.838.273 7.663 0 11h19c-.272-3.337-2.129-6.162-4.844-7.68"/></svg>
